X:4
T:A Tune For Lottie
T:Fourths
R:Air
C:Danny Hutcheson
M:4/4
L:1/8
K:D
[| {g}de | {g}f>e {g}f<a {e}f2 {g}f/e/d | {gCd}B2 {gf}g>f {g}f<A {g}de/f/ | {gf}g2 {fg}f>e {g}f<a A/B/d | {gef}e4 {A}e3 a | 
{g}a>g {a}f<a {Gdc}d3 e/f/ | {gf}g>a f/e/d {gBd}B3 {g}A/B/ | {gc}d>f {gef}e/d/{A}B {g}e>f d<{e}B| {G}A6 {g}de |
A8 | G4 {g}A4 | G4 {g}f4 | {ag}a8 | 
A8 | {g}B4 G4| {g}A8 | {g}f8 || 
[|: {g}f4 e4 | {gf}g4 {a}f4 | {d}G4 {g}f4 | ["1" {ag}a8 | 
A8 | {g}B4 G4 | {g}A8 | a6 dc :|]
["2" d4 c4 | {g}A8 | G4 {g}A4 | g4 {ag}a4 [M:6/4]| e4 a8 |]